svg/u1f478_1f3fd.svg

<svg viewBox="0 0 128 128" xmlns="http://www.w3.org/2000/svg">
  <g id="crown_back">
    <g>
      <ellipse cx="40.46" cy="16.65" rx="5.38" ry="5.88" fill="#F19534" transform="matrix(0.9832 -0.1827 0.1827 0.9832 -2.3602 7.6724)"/>
      <ellipse cx="87.13" cy="16.72" rx="5.88" ry="5.81" fill="#F19534" transform="matrix(0.1827 -0.9832 0.9832 0.1827 54.7701 99.3273)"/>
      <path d="M38.87,18.15c-0.29-2.98,1.34-3.56,1.66-3.79c0.84-0.61,0.89-1.28,0.46-1.77 c-0.52-0.6-1.6-0.26-1.95-0.12c-1.56,0.64-3.04,2.99-1.94,6.06c0.1,0.28,0.5,1.06,1.27,0.78C38.96,19.09,38.89,18.42,38.87,18.15 z" fill="#FFCA28"/>
      <path d="M84.62,17.61c0.66-2.74,2.39-2.73,2.96-2.84c1.24-0.23,1.56-0.64,1.47-1.29 c-0.16-1.19-1.54-1.21-2.41-1.03c-1.31,0.28-3.68,1.29-3.78,4.65c-0.01,0.28,0,1.38,0.84,1.47 C84.45,18.65,84.58,17.79,84.62,17.61z" fill="#FFCA28"/>
    </g>
    <path d="M36.41,32.2l2.69,7.3h48.9l3.6-6.93c-4.08-4.14-3.56-11.85-3.56-11.85l-3.46-1.39 c0,0-4.63,10.5-21.67,10.5s-19.82-10.5-19.82-10.5l-3.88,1.39C39.2,20.72,40.84,27.89,36.41,32.2z" fill="#F19534"/>
  </g>
  <g id="face_58_">
    <g id="hairGroup_100_">
      <path id="hair_3_" d="M106.37,55.32c0,0-9.25-33.72-41.8-33.72h-1.15c-32.55,0-41.8,33.72-41.8,33.72 c-3.55,9.47-4.13,25.32-3.48,35.52c0.01,0.06,0.02,0.12,0.03,0.18c0,0,0.95,20.1,4.18,32.98h83.28c3.22-12.88,4.2-33.1,4.21-33.16 C110.5,80.63,109.92,64.79,106.37,55.32z" fill="#543930"/>
      <radialGradient id="hairHighlights_1_" cx="65.4469" cy="91.1132" gradientTransform="matrix(1 0 0 1.2135 0 -19.4527)" gradientUnits="userSpaceOnUse" r="48.4772">
        <stop offset="0.7575" stop-color="#6D4C41" stop-opacity="0"/>
        <stop offset="0.9682" stop-color="#6D4C41"/>
      </radialGradient>
      <path id="hairHighlights" d="M106.37,55.32c0,0-9.25-33.72-41.8-33.72h-1.15 c-32.55,0-41.8,33.72-41.8,33.72c-3.55,9.47-4.13,25.32-3.48,35.52c0.01,0.06,0.98,20.28,4.21,33.16h83.28 c3.22-12.88,4.21-33.16,4.21-33.16C110.5,80.63,109.92,64.79,106.37,55.32z" fill="url(#hairHighlights_1_)"/>
    </g>
    <path id="head" d="M64,124L64,124L64,124c20.31,0,39.12-21.72,39.12-52.97c0-31.09-19.38-46.45-39.12-46.45 S24.89,39.94,24.89,71.03C24.88,102.28,43.69,124,64,124z" fill="#BA8D68"/>
    <path id="nose_61_" d="M68.5,91.08c-0.12-0.05-0.25-0.08-0.38-0.1h-8.26c-0.13,0.02-0.25,0.05-0.38,0.1 c-0.75,0.3-1.16,1.08-0.81,1.9c0.35,0.83,2,3.14,5.31,3.14c3.31,0,4.95-2.32,5.31-3.14C69.66,92.15,69.25,91.38,68.5,91.08z" fill="#99674F"/>
    <path id="mouth_61_" d="M73.82,100.42c-3.72,2.21-15.9,2.21-19.62,0c-2.13-1.27-4.32,0.67-3.43,2.61 c0.87,1.91,7.52,6.33,13.27,6.33s12.31-4.42,13.18-6.33C78.11,101.09,75.96,99.15,73.82,100.42z" fill="#5D4037"/>
    <g id="eyes_62_">
      <ellipse cx="45.07" cy="80.26" rx="5.67" ry="5.87" fill="#49362E"/>
      <ellipse cx="82.93" cy="80.26" rx="5.67" ry="5.87" fill="#49362E"/>
    </g>
    <g id="eyebrows_63_">
      <path d="M53.5,69.71c-1.08-1.43-3.58-3.51-8.43-3.51s-7.35,2.08-8.43,3.51c-0.48,0.63-0.36,1.36-0.03,1.8 c0.31,0.41,1.21,0.79,2.21,0.45c1-0.34,2.96-1.35,6.24-1.38c3.28,0.02,5.23,1.04,6.24,1.38c1,0.34,1.91-0.04,2.21-0.45 C53.85,71.07,53.97,70.34,53.5,69.71z" fill="#613E31"/>
      <path d="M91.35,69.71c-1.08-1.43-3.58-3.51-8.43-3.51s-7.35,2.08-8.43,3.51c-0.48,0.63-0.36,1.36-0.03,1.8 c0.31,0.41,1.21,0.79,2.21,0.45c1-0.34,2.96-1.35,6.24-1.38c3.28,0.02,5.23,1.04,6.24,1.38c1,0.34,1.91-0.04,2.21-0.45 C91.71,71.07,91.83,70.34,91.35,69.71z" fill="#613E31"/>
    </g>
    <g id="hairGroup_99_">
      <path id="hair" d="M64.6,16.5c-39.17,0-43.65,25.09-43.89,34.99c-0.03,1.05,0.24,1.82,0.27,2.48 c0.04,0.88-0.13,1.47-0.13,1.47c-0.55,3.69-3.88,16.43-2.67,35.57L25.84,91c-0.06-3.4,2.32-24.47,9.43-26.07 c26.1-5.86,40.86-19.71,40.86-19.71c3.84,8.39,15.85,16.56,20.16,19.67c3.54,2.55,4.63,21.65,4.56,26.12h8.97 c0.01-0.06,1.04-21.2-3.44-35.7C106.4,55.32,113.41,16.5,64.6,16.5z" fill="#543930"/>
      <radialGradient id="hairHighlights_2_" cx="65.3116" cy="43.6107" gradientTransform="matrix(1 0 0 -1.2135 0 143.9416)" gradientUnits="userSpaceOnUse" r="48.1581">
        <stop offset="0.7673" stop-color="#6D4C41" stop-opacity="0"/>
        <stop offset="0.981" stop-color="#6D4C41"/>
      </radialGradient>
      <path id="hairHighlights_93_" d="M64.6,16.5c-39.17,0-43.65,25.09-43.89,34.99 c-0.03,1.05,0.24,1.82,0.27,2.48c0.04,0.88-0.13,1.47-0.13,1.47c-0.55,3.69-3.88,16.43-2.67,35.57L25.84,91 c-0.06-3.4,2.32-24.47,9.43-26.07c26.1-5.86,40.86-19.71,40.86-19.71c3.84,8.39,15.85,16.56,20.16,19.67 c3.54,2.55,4.63,21.65,4.56,26.12h8.97c0.01-0.06,1.04-21.2-3.44-35.7C106.4,55.32,113.41,16.5,64.6,16.5z" fill="url(#hairHighlights_2_)"/>
    </g>
  </g>
  <g id="crown_front">
    <path d="M112.16,14.11c-2.63-0.5-5.23,1.68-5.81,4.88c-0.32,1.74,0.04,3.41,0.85,4.67 c-2.89,2.13-12.09,7.87-23.76,4.84c-11.67-3.04-15.18-8.9-16.34-13.97c1.67-1.04,2.79-2.89,2.79-5c0-3.25-2.63-5.88-5.88-5.88 s-5.88,2.63-5.88,5.88c0,2.11,1.12,3.96,2.79,5c-1.15,4.99-4.59,10.58-16.34,13.97c-11.61,3.35-20.87-2.62-23.77-4.82 c0.81-1.25,1.17-2.94,0.85-4.68c-0.58-3.2-3.18-5.38-5.81-4.88c-2.63,0.5-4.3,3.5-3.72,6.69c0.45,2.48,2.12,4.35,4.08,4.82 l4.78,28.35c-0.36,0.11-1.55,0.65-1.06,3.21l0.39,1.91c1.2-0.1,21.05-1.82,43.69-1.82s42.48,1.72,43.69,1.82l0.39-1.91 c0.48-2.56-0.7-3.1-1.06-3.21l4.78-28.35c1.96-0.48,3.63-2.34,4.08-4.82C116.46,17.61,114.79,14.61,112.16,14.11z" fill="#FFCA28"/>
    <ellipse cx="64" cy="39.5" rx="5.99" ry="7.42" fill="#AB47BC"/>
    <path d="M64,33.91c0.24,0.27,0.42,1.18-0.21,1.88c-1.07,1.17-2.49,2.18-2.93,2.44 c-0.44,0.27-0.85,0.07-0.99-0.04c-0.65-0.54-0.4-1.75,0.02-2.49C60.79,34.08,62.69,32.43,64,33.91z" fill="#EA80FC"/>
    <path d="M63.56,42.27c-0.67,0.34-3.04,1.16-2.16,2.59c0.46,0.75,2.28,1.58,4.49,0.45 c3.48-1.78,3.54-6.8,2.87-7.17c-0.69-0.38-1.28,0.49-1.71,1.36C66.29,40.98,65.02,41.53,63.56,42.27z" fill="#7B1FA2"/>
    <path d="M103.82,44.07c0.53-3.22,2.04-5.7,3.95-5.36c2.59,0.46,3.5,3.36,2.96,6.58 c-0.53,3.22-2.28,5.44-4.89,5.07C104.2,50.13,103.29,47.29,103.82,44.07z" fill="#AB47BC"/>
    <path d="M108.5,40.49c0.24,0.16,0.5,0.49,0.36,1.32c-0.14,0.83-1.69,2.33-1.97,2.63 c-0.28,0.3-0.53,0.27-0.65,0.21c-0.61-0.27-0.68-1.26-0.51-1.92C106.07,41.3,107.18,39.63,108.5,40.49z" fill="#EA80FC"/>
    <path d="M24.18,43.45c-0.53-3.22-2.04-5.7-3.95-5.36c-2.59,0.46-3.5,3.36-2.96,6.58 c0.53,3.22,2.28,5.44,4.89,5.07C23.8,49.51,24.71,46.67,24.18,43.45z" fill="#AB47BC"/>
    <path d="M19.3,40.09c0.92-0.5,1.74,0.21,1.33,1.14c-0.62,1.42-0.7,2.22-0.76,2.77 c-0.05,0.56-0.23,0.74-0.55,0.8c-0.53,0.09-0.89-0.5-1-1.18C18.1,42.16,18.36,40.6,19.3,40.09z" fill="#EA80FC"/>
    <ellipse cx="40.47" cy="41.25" rx="3.94" ry="4.54" fill="#6119FF" transform="matrix(0.9693 -0.246 0.246 0.9693 -8.9035 11.2214)"/>
    <path d="M39.87,38.02c0.27,0.1,0.6,0.36,0.67,1.21c0.07,0.85-0.92,2.62-1.12,2.97 c-0.2,0.36-0.62,0.45-0.75,0.43C38,42.5,37.7,41.55,37.7,40.86C37.7,39.38,38.38,37.48,39.87,38.02z" fill="#536DFE"/>
    <ellipse cx="87.53" cy="41.25" rx="4.54" ry="3.94" fill="#6119FF" transform="matrix(0.246 -0.9693 0.9693 0.246 26.0182 115.9478)"/>
    <path d="M87.85,38.28c0.24,0.16,0.49,0.51,0.34,1.34c-0.15,0.84-1.73,2.32-2.02,2.61s-0.53,0.26-0.66,0.2 c-0.61-0.29-0.66-1.29-0.48-1.95C85.41,39.05,86.55,37.38,87.85,38.28z" fill="#536DFE"/>
    <path d="M61.64,10.76c0.36-3.3,2.65-3.42,3.07-3.5c1.04-0.21,1.26-0.7,1.04-1.5 c-0.23-0.86-1.41-0.8-1.79-0.79c-1.76,0.06-4.6,1.87-4.1,5.71C60.02,11.91,61.52,11.87,61.64,10.76z" fill="#FFF59D"/>
    <path d="M23.14,54.03c3.62-0.54,6.35-0.51,8.52-0.67c1.78-0.13,2.58,0.41,2.69,0.9 c0.19,0.92-0.62,1.17-1.89,1.27c-2.79,0.2-5.73,0.3-8.74,0.5c-1.14,0.08-1.86-0.21-1.85-0.84C21.87,54.7,22.2,54.17,23.14,54.03z" fill="#FFF59D"/>
    <path d="M18.92,20.93c-0.7-3.01-2.9-3.54-3.24-3.8c-0.49-0.37-0.78-0.89-0.5-1.48 c0.28-0.59,1.02-0.58,1.38-0.49c1.9,0.5,3.64,2.34,3.76,5.74C20.34,21.62,19.17,22.01,18.92,20.93z" fill="#FFF59D"/>
    <path d="M21.64,29.4c-0.8-0.52-2.32-1.97-1.19-2.62c1.31-0.75,2.17,1.14,7.2,3.03 c2.07,0.78,5.34,1.47,8.22,1.54c1.46,0.04,1.4,0.99-0.21,1.29C34.25,32.91,27.23,33.08,21.64,29.4z" fill="#FFF59D"/>
    <path d="M109.08,20.93c0.7-3.01,2.9-3.54,3.24-3.8c0.49-0.37,0.78-0.89,0.5-1.48 c-0.28-0.59-1.02-0.58-1.38-0.49c-1.9,0.5-3.64,2.34-3.76,5.74C107.66,21.62,108.83,22.01,109.08,20.93z" fill="#FFF59D"/>
    <path d="M106.36,29.4c0.8-0.52,2.32-1.97,1.19-2.62c-1.31-0.75-2.17,1.14-7.2,3.03 c-2.07,0.78-5.34,1.47-8.22,1.54c-1.46,0.04-1.4,0.99,0.21,1.29C93.75,32.91,100.77,33.08,106.36,29.4z" fill="#FFF59D"/>
    <path d="M64,55.3c-23.82,0-43.87,1.87-44.08,1.89l0.39,1.91c0.2-0.02,19.96-1.8,43.69-1.8 s43.48,1.78,43.69,1.8l0.39-1.91C107.87,57.17,87.82,55.3,64,55.3z" fill="#E2A610"/>
    <path d="M64,50.33c-29.48,0-43.21,1.69-43.35,1.71l0.33,1.94c0.14-0.02,13.68-1.65,43.02-1.65 s42.88,1.63,43.02,1.65l0.33-1.94C107.21,52.02,93.48,50.33,64,50.33z" fill="#F19534"/>
  </g>
</svg>

<svg viewBox="0 0 128 128" xmlns="http://www.w3.org/2000/svg">
  <defs>
    <radialGradient id="hairHighlights_1_" cx="65.4469" cy="75.082957" gradientTransform="matrix(1 0 0 1.2135 0 0)" gradientUnits="userSpaceOnUse" r="48.4772">
      <stop offset="0.7575" stop-color="#6D4C41" stop-opacity="0"/>
      <stop offset="0.9682" stop-color="#6D4C41"/>
    </radialGradient>
    <radialGradient id="hairHighlights_2_" cx="65.3116" cy="-75.006193" gradientTransform="matrix(1 0 0 -1.2135 0 0)" gradientUnits="userSpaceOnUse" r="48.1581">
      <stop offset="0.7673" stop-color="#6D4C41" stop-opacity="0"/>
      <stop offset="0.981" stop-color="#6D4C41"/>
    </radialGradient>
  </defs>
  <path d="M45.752,15.668 C46.345,18.861 44.458,21.889 41.536,22.432 C38.615,22.975 35.766,20.826 35.172,17.634 C34.579,14.441 36.466,11.412 39.388,10.869 C42.309,10.327 45.158,12.475 45.752,15.668 Z" fill="#F19534"/>
  <path d="M88.202,10.935 C91.357,11.521 93.434,14.584 92.84,17.777 C92.247,20.97 89.208,23.083 86.054,22.497 C82.899,21.911 80.822,18.847 81.415,15.654 C82.009,12.461 85.047,10.348 88.202,10.935 Z" fill="#F19534"/>
  <path d="M38.87,18.15 C38.58,15.17 40.21,14.59 40.53,14.36 C41.37,13.75 41.42,13.08 40.99,12.59 C40.47,11.99 39.39,12.33 39.04,12.47 C37.48,13.11 36,15.46 37.1,18.53 C37.2,18.81 37.6,19.59 38.37,19.31 C38.96,19.09 38.89,18.42 38.87,18.15 Z" fill="#FFCA28"/>
  <path d="M84.62,17.61 C85.28,14.87 87.01,14.88 87.58,14.77 C88.82,14.54 89.14,14.13 89.05,13.48 C88.89,12.29 87.51,12.27 86.64,12.45 C85.33,12.73 82.96,13.74 82.86,17.1 C82.85,17.38 82.86,18.48 83.7,18.57 C84.45,18.65 84.58,17.79 84.62,17.61 Z" fill="#FFCA28"/>
  <path d="M36.41,32.2 L39.1,39.5 L88,39.5 L91.6,32.57 C87.52,28.43 88.04,20.72 88.04,20.72 L84.58,19.33 C84.58,19.33 79.95,29.83 62.91,29.83 C45.87,29.83 43.09,19.33 43.09,19.33 L39.21,20.72 C39.2,20.72 40.84,27.89 36.41,32.2 Z" fill="#F19534"/>
  <path id="hair_3_" d="M106.37,55.32 C106.37,55.32 97.12,21.6 64.57,21.6 L63.42,21.6 C30.87,21.6 21.62,55.32 21.62,55.32 C18.07,64.79 17.49,80.64 18.14,90.84 C18.15,90.9 18.16,90.96 18.17,91.02 C18.17,91.02 19.12,111.12 22.35,124 L105.63,124 C108.85,111.12 109.83,90.9 109.84,90.84 C110.5,80.63 109.92,64.79 106.37,55.32 Z" fill="#543930"/>
  <path id="hairHighlights" d="M106.37,55.32 C106.37,55.32 97.12,21.6 64.57,21.6 L63.42,21.6 C30.87,21.6 21.62,55.32 21.62,55.32 C18.07,64.79 17.49,80.64 18.14,90.84 C18.15,90.9 19.12,111.12 22.35,124 L105.63,124 C108.85,111.12 109.84,90.84 109.84,90.84 C110.5,80.63 109.92,64.79 106.37,55.32 Z" fill="url(#hairHighlights_1_)"/>
  <path id="head" d="M64,124 L64,124 L64,124 C84.31,124 103.12,102.28 103.12,71.03 C103.12,39.94 83.74,24.58 64,24.58 C44.26,24.58 24.89,39.94 24.89,71.03 C24.88,102.28 43.69,124 64,124 Z" fill="#BA8D68"/>
  <path id="nose_61_" d="M68.5,91.08 C68.38,91.03 68.25,91 68.12,90.98 L59.86,90.98 C59.73,91 59.61,91.03 59.48,91.08 C58.73,91.38 58.32,92.16 58.67,92.98 C59.02,93.81 60.67,96.12 63.98,96.12 C67.29,96.12 68.93,93.8 69.29,92.98 C69.66,92.15 69.25,91.38 68.5,91.08 Z" fill="#99674F"/>
  <path id="mouth_61_" d="M73.82,100.42 C70.1,102.63 57.92,102.63 54.2,100.42 C52.07,99.15 49.88,101.09 50.77,103.03 C51.64,104.94 58.29,109.36 64.04,109.36 C69.79,109.36 76.35,104.94 77.22,103.03 C78.11,101.09 75.96,99.15 73.82,100.42 Z" fill="#5D4037"/>
  <path d="M50.74,80.26 A5.67 5.87 0 1 1 39.4,80.26 A5.67 5.87 0 1 1 50.74,80.26 Z" fill="#49362E"/>
  <path d="M88.6,80.26 A5.67 5.87 0 1 1 77.26,80.26 A5.67 5.87 0 1 1 88.6,80.26 Z" fill="#49362E"/>
  <path d="M53.5,69.71 C52.42,68.28 49.92,66.2 45.07,66.2 C40.22,66.2 37.72,68.28 36.64,69.71 C36.16,70.34 36.28,71.07 36.61,71.51 C36.92,71.92 37.82,72.3 38.82,71.96 C39.82,71.62 41.78,70.61 45.06,70.58 C48.34,70.6 50.29,71.62 51.3,71.96 C52.3,72.3 53.21,71.92 53.51,71.51 C53.85,71.07 53.97,70.34 53.5,69.71 Z" fill="#613E31"/>
  <path d="M91.35,69.71 C90.27,68.28 87.77,66.2 82.92,66.2 C78.07,66.2 75.57,68.28 74.49,69.71 C74.01,70.34 74.13,71.07 74.46,71.51 C74.77,71.92 75.67,72.3 76.67,71.96 C77.67,71.62 79.63,70.61 82.91,70.58 C86.19,70.6 88.14,71.62 89.15,71.96 C90.15,72.3 91.06,71.92 91.36,71.51 C91.71,71.07 91.83,70.34 91.35,69.71 Z" fill="#613E31"/>
  <path id="hair" d="M64.6,16.5 C25.43,16.5 20.95,41.59 20.71,51.49 C20.68,52.54 20.95,53.31 20.98,53.97 C21.02,54.85 20.85,55.44 20.85,55.44 C20.3,59.13 16.97,71.87 18.18,91.01 L25.84,91 C25.78,87.6 28.16,66.53 35.27,64.93 C61.37,59.07 76.13,45.22 76.13,45.22 C79.97,53.61 91.98,61.78 96.29,64.89 C99.83,67.44 100.92,86.54 100.85,91.01 L109.82,91.01 C109.83,90.95 110.86,69.81 106.38,55.31 C106.4,55.32 113.41,16.5 64.6,16.5 Z" fill="#543930"/>
  <path id="hairHighlights_93_" d="M64.6,16.5 C25.43,16.5 20.95,41.59 20.71,51.49 C20.68,52.54 20.95,53.31 20.98,53.97 C21.02,54.85 20.85,55.44 20.85,55.44 C20.3,59.13 16.97,71.87 18.18,91.01 L25.84,91 C25.78,87.6 28.16,66.53 35.27,64.93 C61.37,59.07 76.13,45.22 76.13,45.22 C79.97,53.61 91.98,61.78 96.29,64.89 C99.83,67.44 100.92,86.54 100.85,91.01 L109.82,91.01 C109.83,90.95 110.86,69.81 106.38,55.31 C106.4,55.32 113.41,16.5 64.6,16.5 Z" fill="url(#hairHighlights_2_)"/>
  <path d="M112.16,14.11 C109.53,13.61 106.93,15.79 106.35,18.99 C106.03,20.73 106.39,22.4 107.2,23.66 C104.31,25.79 95.11,31.53 83.44,28.5 C71.77,25.46 68.26,19.6 67.1,14.53 C68.77,13.49 69.89,11.64 69.89,9.53 C69.89,6.28 67.26,3.65 64.01,3.65 C60.76,3.65 58.13,6.28 58.13,9.53 C58.13,11.64 59.25,13.49 60.92,14.53 C59.77,19.52 56.33,25.11 44.58,28.5 C32.97,31.85 23.71,25.88 20.81,23.68 C21.62,22.43 21.98,20.74 21.66,19 C21.08,15.8 18.48,13.62 15.85,14.12 C13.22,14.62 11.55,17.62 12.13,20.81 C12.58,23.29 14.25,25.16 16.21,25.63 L20.99,53.98 C20.63,54.09 19.44,54.63 19.93,57.19 L20.32,59.1 C21.52,59 41.37,57.28 64.01,57.28 C86.65,57.28 106.49,59 107.7,59.1 L108.09,57.19 C108.57,54.63 107.39,54.09 107.03,53.98 L111.81,25.63 C113.77,25.15 115.44,23.29 115.89,20.81 C116.46,17.61 114.79,14.61 112.16,14.11 Z" fill="#FFCA28"/>
  <path d="M69.99,39.5 A5.99 7.42 0 1 1 58.01,39.5 A5.99 7.42 0 1 1 69.99,39.5 Z" fill="#AB47BC"/>
  <path d="M64,33.91 C64.24,34.18 64.42,35.09 63.79,35.79 C62.72,36.96 61.3,37.97 60.86,38.23 C60.42,38.5 60.01,38.3 59.87,38.19 C59.22,37.65 59.47,36.44 59.89,35.7 C60.79,34.08 62.69,32.43 64,33.91 Z" fill="#EA80FC"/>
  <path d="M63.56,42.27 C62.89,42.61 60.52,43.43 61.4,44.86 C61.86,45.61 63.68,46.44 65.89,45.31 C69.37,43.53 69.43,38.51 68.76,38.14 C68.07,37.76 67.48,38.63 67.05,39.5 C66.29,40.98 65.02,41.53 63.56,42.27 Z" fill="#7B1FA2"/>
  <path d="M103.82,44.07 C104.35,40.85 105.86,38.37 107.77,38.71 C110.36,39.17 111.27,42.07 110.73,45.29 C110.2,48.51 108.45,50.73 105.84,50.36 C104.2,50.13 103.29,47.29 103.82,44.07 Z" fill="#AB47BC"/>
  <path d="M108.5,40.49 C108.74,40.65 109,40.98 108.86,41.81 C108.72,42.64 107.17,44.14 106.89,44.44 C106.61,44.74 106.36,44.71 106.24,44.65 C105.63,44.38 105.56,43.39 105.73,42.73 C106.07,41.3 107.18,39.63 108.5,40.49 Z" fill="#EA80FC"/>
  <path d="M24.18,43.45 C23.65,40.23 22.14,37.75 20.23,38.09 C17.64,38.55 16.73,41.45 17.27,44.67 C17.8,47.89 19.55,50.11 22.16,49.74 C23.8,49.51 24.71,46.67 24.18,43.45 Z" fill="#AB47BC"/>
  <path d="M19.3,40.09 C20.22,39.59 21.04,40.3 20.63,41.23 C20.01,42.65 19.93,43.45 19.87,44 C19.82,44.56 19.64,44.74 19.32,44.8 C18.79,44.89 18.43,44.3 18.32,43.62 C18.1,42.16 18.36,40.6 19.3,40.09 Z" fill="#EA80FC"/>
  <path d="M44.291,40.28 C44.907,42.711 43.698,45.115 41.588,45.65 C39.479,46.185 37.269,44.649 36.653,42.219 C36.036,39.788 37.246,37.384 39.355,36.849 C41.464,36.313 43.674,37.85 44.291,40.28 Z" fill="#6119FF"/>
  <path d="M39.87,38.02 C40.14,38.12 40.47,38.38 40.54,39.23 C40.61,40.08 39.62,41.85 39.42,42.2 C39.22,42.56 38.8,42.65 38.67,42.63 C38,42.5 37.7,41.55 37.7,40.86 C37.7,39.38 38.38,37.48 39.87,38.02 Z" fill="#536DFE"/>
  <path d="M88.651,36.852 C90.76,37.387 91.97,39.791 91.353,42.222 C90.736,44.652 88.527,46.188 86.417,45.653 C84.308,45.118 83.098,42.714 83.715,40.283 C84.332,37.853 86.542,36.317 88.651,36.852 Z" fill="#6119FF"/>
  <path d="M87.85,38.28 C88.09,38.44 88.34,38.79 88.19,39.62 C88.04,40.46 86.46,41.94 86.17,42.23 C85.88,42.52 85.64,42.49 85.51,42.43 C84.9,42.14 84.85,41.14 85.03,40.48 C85.41,39.05 86.55,37.38 87.85,38.28 Z" fill="#536DFE"/>
  <path d="M61.64,10.76 C62,7.46 64.29,7.34 64.71,7.26 C65.75,7.05 65.97,6.56 65.75,5.76 C65.52,4.9 64.34,4.96 63.96,4.97 C62.2,5.03 59.36,6.84 59.86,10.68 C60.02,11.91 61.52,11.87 61.64,10.76 Z" fill="#FFF59D"/>
  <path d="M23.14,54.03 C26.76,53.49 29.49,53.52 31.66,53.36 C33.44,53.23 34.24,53.77 34.35,54.26 C34.54,55.18 33.73,55.43 32.46,55.53 C29.67,55.73 26.73,55.83 23.72,56.03 C22.58,56.11 21.86,55.82 21.87,55.19 C21.87,54.7 22.2,54.17 23.14,54.03 Z" fill="#FFF59D"/>
  <path d="M18.92,20.93 C18.22,17.92 16.02,17.39 15.68,17.13 C15.19,16.76 14.9,16.24 15.18,15.65 C15.46,15.06 16.2,15.07 16.56,15.16 C18.46,15.66 20.2,17.5 20.32,20.9 C20.34,21.62 19.17,22.01 18.92,20.93 Z" fill="#FFF59D"/>
  <path d="M21.64,29.4 C20.84,28.88 19.32,27.43 20.45,26.78 C21.76,26.03 22.62,27.92 27.65,29.81 C29.72,30.59 32.99,31.28 35.87,31.35 C37.33,31.39 37.27,32.34 35.66,32.64 C34.25,32.91 27.23,33.08 21.64,29.4 Z" fill="#FFF59D"/>
  <path d="M109.08,20.93 C109.78,17.92 111.98,17.39 112.32,17.13 C112.81,16.76 113.1,16.24 112.82,15.65 C112.54,15.06 111.8,15.07 111.44,15.16 C109.54,15.66 107.8,17.5 107.68,20.9 C107.66,21.62 108.83,22.01 109.08,20.93 Z" fill="#FFF59D"/>
  <path d="M106.36,29.4 C107.16,28.88 108.68,27.43 107.55,26.78 C106.24,26.03 105.38,27.92 100.35,29.81 C98.28,30.59 95.01,31.28 92.13,31.35 C90.67,31.39 90.73,32.34 92.34,32.64 C93.75,32.91 100.77,33.08 106.36,29.4 Z" fill="#FFF59D"/>
  <path d="M64,55.3 C40.18,55.3 20.13,57.17 19.92,57.19 L20.31,59.1 C20.51,59.08 40.27,57.3 64,57.3 C87.73,57.3 107.48,59.08 107.69,59.1 L108.08,57.19 C107.87,57.17 87.82,55.3 64,55.3 Z" fill="#E2A610"/>
  <path d="M64,50.33 C34.52,50.33 20.79,52.02 20.65,52.04 L20.98,53.98 C21.12,53.96 34.66,52.33 64,52.33 C93.34,52.33 106.88,53.96 107.02,53.98 L107.35,52.04 C107.21,52.02 93.48,50.33 64,50.33 Z" fill="#F19534"/>
</svg>
